src/assets/images/logo.svg

<svg width="67" height="28" viewBox="0 0 67 28" fill="none" xmlns="http://www.w3.org/2000/svg">
<path d="M56.625 25C55.9688 25 55.3125 24.3438 55.3125 23.6875V0.28125H47V1.8125H47.6563C48.3125 1.8125 48.9688 2.46875 48.9688 3.125V9.46875C47.4375 7.71875 45.0313 6.40625 42.625 6.40625C37.5938 6.40625 33.6562 11 33.6562 16.9062C33.6562 22.8125 37.5938 27.4062 42.625 27.4062C45.0313 27.4062 47.2188 26.3125 48.9688 24.3437V26.75H57.0625V25.2187H56.625V25ZM43.9375 24.3437C41.5313 24.3437 39.5625 21.0625 39.5625 17.125C39.5625 13.1875 41.5313 9.90625 43.9375 9.90625C46.3438 9.90625 48.3125 13.1875 48.3125 17.125C48.3125 21.0625 46.3438 24.3437 43.9375 24.3437Z" fill="#1C1C1C"/>
<path d="M15.0625 6.84375C10.9063 6.84375 8.71875 9.25 8.71875 9.25V6.84375H0.40625V8.59375H0.84375C1.71875 8.59375 2.15625 9.25 2.15625 9.90625V23.6875C2.15625 24.3438 1.5 25 0.84375 25H0.40625V26.5312H10.4688V25H10.0312C9.375 25 8.71875 24.3438 8.71875 23.6875V12.0937C8.71875 10.3437 12.2188 9.25 12.2188 9.46875C12.2188 9.6875 12 10.125 12.2188 10.3438C12.2188 12.3125 13.75 13.8437 15.7188 13.8437C17.6875 13.8437 19.2187 12.5312 19.2187 10.5625C19 8.59375 17.4688 6.84375 15.0625 6.84375Z" fill="#1C1C1C"/>
<path d="M32.7813 25C32.125 25 31.4688 24.3438 31.4688 23.6875V11.875C31.4688 8.8125 29.9375 6.84375 27.0938 6.84375H21.1875V7.9375H22.5C24.4688 7.9375 25.125 9.46875 25.125 11.875C24.4688 12.3125 22.2813 13.1875 17.25 15.375C13.9688 16.9062 13.75 19.3125 13.75 21.5C13.75 24.5625 15.9375 26.9688 18.7813 26.9688C22.5 26.9688 25.125 23.4688 25.125 23.4688V26.5312H33.6562V25H32.7813ZM24.6875 21.2813C24.6875 21.2813 23.375 22.8125 21.625 22.8125C20.0938 22.8125 19.2188 21.7188 19.2188 20.4063C19.2188 18.2188 20.9688 17.5625 24.6875 14.9375V21.2813Z" fill="#1C1C1C"/>
<path d="M62.3121 20.625C63.6246 20.625 64.4996 20.8437 65.3746 21.7187C65.8121 22.375 66.0309 23.0313 66.0309 23.6875C66.0309 25 65.1559 25.875 64.0621 26.3125C63.1871 26.5312 62.3121 26.5312 61.4371 26.3125C60.7809 26.0937 60.1246 25.6562 59.6871 25C59.2496 24.3437 59.2496 23.4687 59.4684 22.8125C59.6871 21.7187 60.5621 21.0625 61.6559 20.625C61.8746 20.8437 62.0934 20.8437 62.3121 20.625Z" fill="#1C1C1C"/>
</svg>

<svg xmlns="http://www.w3.org/2000/svg" width="67" height="28" fill="#1c1c1c" xmlns:v="https://vecta.io/nano"><path d="M56.625 25c-.656 0-1.312-.656-1.312-1.312V.281H47v1.531h.656c.656 0 1.313.656 1.313 1.313v6.344c-1.531-1.75-3.937-3.062-6.344-3.062-5.031 0-8.969 4.594-8.969 10.5s3.938 10.5 8.969 10.5c2.406 0 4.594-1.094 6.344-3.062v2.406h8.094V25.22h-.437V25zm-12.687-.656c-2.406 0-4.375-3.281-4.375-7.219s1.969-7.219 4.375-7.219 4.375 3.281 4.375 7.219-1.969 7.219-4.375 7.219zm-28.875-17.5c-4.156 0-6.344 2.406-6.344 2.406V6.844H.406v1.75h.438c.875 0 1.313.656 1.313 1.313v13.781C2.156 24.344 1.5 25 .844 25H.406v1.531h10.063V25h-.438c-.656 0-1.312-.656-1.312-1.312V12.094c0-1.75 3.5-2.844 3.5-2.625s-.219.656 0 .875a3.45 3.45 0 0 0 3.5 3.5c1.969 0 3.5-1.312 3.5-3.281-.219-1.969-1.75-3.719-4.156-3.719zM32.781 25c-.656 0-1.312-.656-1.312-1.312V11.875c0-3.062-1.531-5.031-4.375-5.031h-5.906v1.094H22.5c1.969 0 2.625 1.531 2.625 3.938-.656.438-2.844 1.313-7.875 3.5-3.281 1.531-3.5 3.938-3.5 6.125 0 3.063 2.188 5.469 5.031 5.469 3.719 0 6.344-3.5 6.344-3.5v3.062h8.531V25h-.875zm-8.094-3.719s-1.312 1.531-3.062 1.531c-1.531 0-2.406-1.094-2.406-2.406 0-2.187 1.75-2.844 5.469-5.469v6.344zm37.625-.656c1.313 0 2.188.219 3.063 1.094.438.656.656 1.313.656 1.969 0 1.313-.875 2.188-1.969 2.625-.875.219-1.75.219-2.625 0-.656-.219-1.312-.656-1.75-1.312s-.437-1.531-.219-2.187c.219-1.094 1.094-1.75 2.188-2.187.219.219.438.219.656 0z"/></svg>
